!!!!SEGMENT: pl-wnifc--6021-n--001_andrychowicz-j--polonez.krn
!!!cenid: 18xx:3912
!!!COM: Andrychowicz, J.
!!!COM-rismID: pe50044917
!!!CDT: <1803->1803
!!!CNT: Polish
!!!OTL: Polonez
!!!PDT:
!!!AGN:
!!!SMS-siglum: PL-Wnifc
!!!SMS-shelfmark: 6021/n
!!!SMS-shelfwork: 001 W
!!!SMS-variant:
!!!SMS-altvar:
!!!NIFC-rismSourceID: 1001134157
!!!NIFC-islandoraID: nifc:212586
!!!URL-pdf-islandora: https://repozytorium.nifc.pl/islandora/object/nifc%3A212586/datastream/PDF/view
!!!URL-scan: https://polish.musicsources.pl/pl/lokalizacje/galeria/druki-muzyczne/16848 @EN{Scan on Polish Music Sources Website} @PL{Skany w portalu Dziedzictwo Muzyki Polskiej w otwartym dostępie}
!!!ONB-nifc: UWAGA: s. 4-5
!!!AIN: 2 piano
!!!key: B
**kern	**kern	**dynam
*part2	*part1	*part1
*staff2	*staff1	*
*I"Piano	*I"Piano	*
*Ipiano	*Ipiano	*
*ICklav	*ICklav	*
*clefF4	*clefG2	*
*k[b-e-]	*k[b-e-]	*
*B:	*B:	*
*M3/4	*M3/4	*
=1	=1	=1
*	*clefF4	*
.	16qqD/	ff
8BBB-/L 8BB-	8B-\L	.
16.AA/L	16.A\L	.
32BB-/JJk	32B-\JJk	.
16.BBn/LL	16.Bn\LL	.
32C/K	32c\K	.
16.C#X/	16.c#X\	.
32D/JJk	32d\JJk	.
16.E-/LL	16.e-\LL	.
32En/K	32en\K	.
16.F/	16.f\	.
32F#X/JJk	32f#X\JJk	.
=2	=2	=2
8.G/L	8.g\L	.
16E-/Jk	16e-\Jk	.
8C/L	8c\L	.
8AA/J	8A\J	.
4FF/	4F\	.
*	*clefG2	*
=3	=3	=3
*tremolo	*	*
!	!LO:TX:b:i:t=dolce	!
(8B-\L 8d	16dd\LL	.
.	16cc#X\	.
8g\	16dd\	.
.	16ee-\JJ	.
.	8qeen/	.
8B-\ 8d	8ff\L	.
8g\	16gg\L	.
.	16aa\JJ	.
8B-\ 8d	16bb-\LL	.
.	16ccc\	.
8g\J)	16ddd\	.
.	16bb-\JJ	.
=4	=4	=4
(8A\L 8e-	(8bbn\L	rf
8f\J	8ccc\J	.
8c\L 8e-	4.aa\)	.
8f\J	.	.
8c\L 8e-	.	.
!LO:SIC:v:t=custos e	!	!
!LO:SIC:v:t=custos A	!LO:SIC:v:t=custos bb	!
8f\J)	8ff\	.
!!LO:LB:g=original
=5	=5	=5
(8A\L 8e-	(8bbn\L	.
8f\J	8ccc\J)	.
8A\L 8e-	8r	.
!	!LO:TX:a:t=P:problem:przekreślony obiegnik	!
8f\J	8cccsS\	.
8A\L 8e-	8.fff\L	.
8f\J)	.	.
.	16eee-\Jk	.
=6	=6	=6
(8B-\L 8d	(16ccc#X\LL	.
.	16ddd\	.
8f\	16fff\	.
.	16ddd\JJ	.
8B-\ 8d	4bb-\)	.
8f\	.	.
8B-\ 8d	4r	.
8f\J)	.	.
=7	=7	=7
*clefG2	*	*
*	*^	*
16B-/LL	(8aa/L	4b-\	rf
16g/	.	.	.
16e-/	8gg/J)	.	.
16g/JJ	.	.	.
*Xtremolo	*	*	*
(16e-/LL	8r	2ryy	.
16g/	.	.	.
16e-/	16bb-\LL	.	.
16g/JJ	16aa\JJ	.	.
16e-/LL)	16ccc\LL	.	.
16g/	16bb-\	.	.
16e-/	16aa\	.	.
16g/JJ	16gg\JJ	.	.
=8	=8	=8	=8
16B-/LL	(8gg/L	4b-\	.
16f/	.	.	.
16d/	8ff/J)	.	.
16f/JJ	.	.	.
(16d/LL	8r	2ryy	.
16f/	.	.	.
.	8qeen/	.	.
16d/	8ff\	.	.
16f/JJ	.	.	.
.	8qaa/	.	.
16d/LL	8bb-\L	.	.
16f/	.	.	.
.	8qccc#X/	.	.
16d/	8ddd\J	.	.
16f/JJ)	.	.	.
*	*v	*v	*
=9	=9	=9
*^	*	*
!	!	!LO:TX:a:t=P:problem:przekreślony obiegnik	!
8A/L 8f	4ryy	8cccsS\L	.
8A/J 8f	.	16fff\L	.
.	.	16ddd\JJ	.
8a/L	2c/	16ccc\LL	.
.	.	16cc\	.
(<8g/	.	16bb-\	.
.	.	16b-\JJ	.
8f/	.	16aa\LL	.
.	.	16a\	.
8en/J)	.	16gg\	.
.	.	16g\JJ	.
*v	*v	*	*
=10	=10	=10
*clefF4	*	*
4F\ 4A 4c 4f	(16ff\LL	.
.	16een\	<
.	16gg\	.
.	16ff\JJ	.
4r	16aa\LL	.
.	16gg\	.
.	16bb-\	.
.	16aa\JJ	.
4r	16ccc\LL	.
.	16bbn\	.
.	16ddd\	.
.	16ccc\JJ)	[
!!LO:LB:g=original
=11	=11	=11
.	32qqaa/LLL	f
.	32qqccc/JJJ	.
4FF/ 4AA 4C 4F	[4eee-\	.
4r	16eee-\LL]	>
.	16ccc\	.
.	16aa\	.
.	16ff\JJ	.
4r	16ee-/LL	.
.	16cc/	.
.	16a/	.
.	16f/JJ	]]
=12||	=12||	=12||
16BB-/LL	8d/ 8f 8b-	ff
16F/	.	.
!	!LO:TUP:b	!
16D/	(<24f/LL	.
.	24g/	.
16F/JJ	.	.
.	24a/JJ	.
*rep	*	*
16BB-/LL	8b-`\L)	.
16F/	.	.
16D/	8dd`\	.
16F/JJ	.	.
*Xrep	*	*
*rep	*	*
16BB-/LL	8ff`\	.
16F/	.	.
16D/	8bb-`\J	.
16F/JJ	.	.
*Xrep	*	*
=13	=13	=13
16BB-/LL	8.ddd\L	.
16F/	.	.
16D/	.	.
16F/JJ	16bb-\Jk	.
16BB-/LL	8.eee-\L	.
16F/	.	.
16E-/	.	.
16F/JJ	16ccc\Jk	.
*rep	*	*
16BB-/LL	16bb-\LL	.
16F/	16aa\	.
16E-/	16gg\	.
16F/JJ	16ff\JJ	.
*Xrep	*	*
=14	=14	=14
16BB-/LL	8f/ 8dd	.
16F/	.	.
!	!LO:TUP:b	!
16D/	(24f/LL	.
.	24g/	.
16F/JJ	.	.
.	24a/JJ)	.
*rep	*	*
16BB-/LL	8b-\L	.
16F/	.	.
16D/	8dd\	.
16F/JJ	.	.
*Xrep	*	*
*rep	*	*
16BB-/LL	8ff\	.
16F/	.	.
16D/	8bb-\J	.
16F/JJ	.	.
*Xrep	*	*
=15	=15	=15
16BB-/LL	16ddd\LL	.
16F/	16ccc#X\	.
16D/	16ddd\	.
16F/JJ	16bb-\JJ	.
16BB-/LL	16eee-\LL	.
16F/	16ddd\	.
16E-/	(16eee-\	.
16F/JJ	16cccn\JJ)	.
*rep	*	*
16BB-/LL	16bb-\LL	.
16F/	16aa\	.
16E-/	16gg\	.
16F/JJ	16ff\JJ	.
*Xrep	*	*
=16	=16	=16
*tremolo	*	*
!	!LO:TX:a:t=P:problem:przekreślony obiegnik	!
8D\L 8F	8bb-sS\L	.
8D\ 8F	16fff\L	.
.	16ddd\JJ	.
8D\ 8F	8bb-\L	.
8D\J 8F	8bb-\J	.
.	8qaa/	.
8D\L 8F	(16bb-\LL	.
.	16aa-X\	.
8D\J 8B-	16gg\	.
.	16ff#X\JJ)	.
!!LO:LB:g=original
=17	=17	=17
8E-\L 8B-	8.gg\L	.
8E-\J 8B-	.	.
.	16aan\Jk	.
8E-\L 8G	8.bb-\L	.
8D\J 8F 8G	.	.
.	16bbn\Jk	.
8C\L 8E- 8G	(16ccc\LL	.
.	16ddd\	.
8AA\J 8C 8F	16eee-\	.
.	16ccc\JJ)	.
=18	=18	=18
.	8qccc/	.
8r	8ddd\L	.
8BB-\ 8D 8F	8ff\J 8fff	rf
.	8qbbn/	.
8r	8ccc\L	.
8FF\ 8F	8ff\J 8fff	rf
.	8qaa/	.
8r	8bb\L	.
8D\ 8F	8ff\J 8fff	rf
=19	=19	=19
4FF\ 4F	16ccc\LL	.
.	16fff\	.
.	16aa\	.
.	16ccc\JJ	.
8r	(4aa\ 4ccc	.
8FF/ 8F	.	.
4BB-/ 4D	8bb-\)	.
.	8r	.
=20:|!|:	=20:|!|:	=20:|!|:
8FFF/ 8FF	8f/ 8ff	f
*	*clefF4	*
(32C/LLL	(32c/LLL	.
32BB-/	32B-/	.
32AA/	32A/	.
32GG/JJJ)	32G/JJJ)	.
8FF/	8F\	.
*Xtremolo	*clefG2	*
8F\L 8B- 8d-X	(8b-\L 8dd-X	p
(8F\ 8A 8c	8a\ 8cc	.
8F\J) 8B- 8d-	8b-\J 8dd-	.
=21	=21	=21
4F\ 4A 4c	8a\L) 8cc	.
.	(16aa\L 16ccc	.
.	16gg\JJ 16bb-	.
4FF/ 4F	8ff\L) 8aa	<
.	(16ff\L 16aa	.
.	16ee-\JJ 16gg-X	.
4r	16dd-X\LL 16ff	.
.	16cc\ 16ee-	.
.	16b-\ 16dd-	[
.	16a\JJ) 16cc	.
=22	=22	=22
8BBB-/ 8BB-	8dd-X\ 8ff 8bb-	f
(32F\LLL	(32f/LLL	.
32E-\	32e-/	.
32D-X\	32d/	.
32C\JJJ)	32c/JJJ)	.
8BB-/	8B-/	.
8BBB-/L 8BB-	(8f\L 8dd-	.
8AAA/ 8AA	8f\ 8cc	.
8GGG/J 8GG	8b-\J) 8dd- 8een	.
!!LO:LB:g=original
=23	=23	=23
!LO:TX:a:t=P:problem:mixed beam	!	!
8FFF/L 8FF	8a'\L 8cc 8ff	.
!	!LO:TX:a:t=P:problem:przekreślony obiegnik	!
8C\J 8B-	16ggsS\L	.
.	16een\JJ	.
!	!LO:TX:a:t=P:problem:przekreślony obiegnik	!
8F\L 8A	8ffsS\L	.
8C\J 8B-	16gg\L	.
.	16ee\JJ	.
4F\ 4A	4ff\	.
*clefG2	*	*
=24	=24	=24
!	!LO:TX:b:i:t=dolce	!
.	8qgg#X/	.
*^	*	*
8e-/L	(4c\	4.aa\	.
8f/J	.	.	.
*rep	*	*	*
8e-/L	2ryy	.	.
8f/J	.	8ccc\	.
*Xrep	*	*	*
*rep	*	*	*
8e-/L)	.	16bb-\LL	.
.	.	16aa\	.
8f/J	.	16ggn\	.
.	.	16ff\JJ	.
*Xrep	*	*	*
=25	=25	=25	=25
8d/L	(4c\	(16bb-\LL	.
.	.	16ccc\	.
8f/J	.	16ddd\	.
.	.	16eee-\JJ)	.
*rep	*	*	*
8d/L)	2ryy	8fff\L	.
8f/J	.	8fff\	.
*Xrep	*	*	*
*rep	*	*	*
8d/L	.	8ddd\	.
8f/J	.	8ddd\J	.
*Xrep	*	*	*
=26	=26	=26	=26
.	.	8qqgg#X/	.
8e-/L	4c\	4.aa\	.
(<8f/J	.	.	.
*rep	*	*	*
8e-/L	2ryy	.	.
8f/J	.	8ccc\	.
*Xrep	*	*	*
*rep	*	*	*
8e-/L)	.	16bb-\LL	.
.	.	16aa\	.
8f/J	.	(16ggn\	.
.	.	16ff\JJ	.
*Xrep	*	*	*
=27	=27	=27	=27
8d/L	4c\	16bb-\LL)	.
.	.	(16ccc\	.
(<8f/J	.	16ddd\	.
.	.	16eee-\JJ)	.
.	.	8qeee-/	.
*rep	*	*	*
8d/L	2ryy	8fff\L	.
.	.	8qeee-/	.
8f/J	.	8fff\J	.
.	.	8qccc/	.
*Xrep	*	*	*
*rep	*	*	*
8d/L)	.	8ddd\L	.
.	.	8qccc/	.
8f/J	.	8ddd\J	.
*Xrep	*	*	*
*v	*v	*	*
=28	=28	=28
!	!LO:TX:t=P:problem:przkreślony obiegnik	!
8r	4.eee-sS\	.
8e-/L 8g	.	.
8e-/ 8g	.	.
8f/ 8g	(16ddd\LL	.
.	16bbn\JJ)	.
8e-/ 8g	8ccc\L	.
8f/J 8g	16ddd\L	.
.	16bb\JJ	.
=29	=29	=29
8r	4.ccc\	.
8e-/L 8g	.	.
8e-/ 8g	.	.
8f/ 8g	16ddd\LL	.
.	16bbn\JJ	.
8e-/ 8g	8ccc\L	.
!LO:SIC:v:t=custos BB	!	!
!LO:SIC:v:t=custos GG	!	!
8f/J 8g	16ddd\L	.
!	!LO:SIC:v:t=custos bb	!
.	16bb\JJ	.
!!LO:PB:g=original
=30	=30	=30
8e-/L 8g	(16ccc\LL	.
.	16bbn\	.
8f/J 8g	16ddd\	.
.	16bb\JJ	.
8e-/L 8g	16ccc\LL	.
.	16bb\	<
8f/J 8g	16ddd\)	.
.	16bb\JJ	.
8e-/L 8g	16ccc\LL	.
.	16bb\	.
8en/J 8g	16ddd\	.
.	16bb-X\JJ	[
*clefF4	*	*
=31	=31	=31
4F\ 4f	8aa\L	.
.	16fff\L	.
.	16ff\JJ	.
4r	16eeen\LL	.
.	16ff\	.
.	16eee-X\	.
.	16ff\JJ	.
4r	16ccc\LL	.
.	16ff\	.
.	16aa\	.
!	!LO:TX:b:i:t=dolce Segno	!
.	16ff\JJ	.
!!LO:LB:g=original 
=32||	=32||	=32||
*k[b-e-a-d-g-]	*k[b-e-a-d-g-]	*
*tremolo	*	*
!	!LO:TX:a:i:t=Trio	!
8B-\L 8d-	(16dd-\LL	mf
.	16ee-\	.
8f\	16dd-\	.
.	16cc\JJ)	.
8B-\ 8d-	(16dd-\LL	.
.	16ee-\	.
8f\	16dd-\	.
.	16cc\JJ)	.
8B-\ 8d-	16dd-\LL	.
.	16b-\	.
8f\J	16an\	.
.	16b-\JJ	.
*Xtremolo	*	*
=33	=33	=33
8An\L 8e-	8cc\L	.
!	!LO:TX:t=P:problem:przkreślony obiegnik	!
8f\	8ccsS\J	.
8A\ 8c	8ff\LL	.
8f\	8een\J	.
8A\ 8c	8ee-X\L	.
8f\J	8cc\JJ	.
=34	=34	=34
4BBB-:/ 4DD-: 4FF: 4BB-:	16r	.
.	16B-/LL	.
.	16d-/	.
.	16f/JJ	.
4r	16b-\LL	.
.	16dd-\	.
.	16ff\	.
.	16bb-\JJ	.
4r	16ddd-\LL	.
.	16bb-\	.
.	16ff\	.
.	16dd-\JJ	.
=35	=35	=35
!	!LO:TX:t=P:problem:przkreślony obiegnik	!
8AAn/L 8F	8ccsS\L	.
8BB-/J 8F	(16dd-\L	.
.	16b-\JJ)	.
!	!LO:TX:t=P:problem:przkreślony obiegnik	!
8AA/L 8F	8ccsS\L	.
8BB-/J 8F	(16dd-\L	.
.	16b-\JJ)	.
4FF/ 4F	4an\ 4cc	.
*clefG2	*	*
=36	=36	=36
16B-/LL	16ddd-\LL	ff
16f/	(16eee-\	.
16d-/	16ddd-\	.
16f/JJ	16ccc\JJ	.
*rep	*	*
16B-/LL	16ddd-\LL	.
16f/	16eee-\	.
16d-/	16ddd-\	.
16f/JJ	16ccc\JJ)	.
*Xrep	*	*
*rep	*	*
16B-/LL	(16ddd-\LL	.
16f/	16bb-\	.
16d-/	16aan\	.
16f/JJ	16bb-\JJ)	.
*Xrep	*	*
!!LO:LB:g=original
=37	=37	=37
16An/LL	8ccc\L	.
16f/	.	.
!	!LO:TX:t=P:problem:przkreślony obiegnik	!
16c/	8cccsS\J	.
16f/JJ	.	.
*rep	*	*
16A/LL	8fff\L	.
16f/	.	.
16c/	8eeen\	.
16f/JJ	.	.
*Xrep	*	*
*rep	*	*
16A/LL	8eee-X\	.
16f/	.	.
16c/	8ccc\J	.
16f/JJ	.	.
*Xrep	*	*
*clefF4	*	*
=38	=38	=38
.	8qccc/	.
16r	8ddd-\L	.
16BB-/LL	.	.
16D-/	8bb-\J	.
16F/JJ	.	.
.	8qccc/	.
16B-\LL	8ddd-\L	.
16d-\	.	.
16f>\	8bb-\J	.
16b->\JJ	.	.
.	8qccc/	.
16dd->\LL	8ddd-\L	.
16b->\	.	.
16f>\	8bb-\J	.
16d->\JJ	.	.
=39	=39	=39
8A-\L 8f	8ccc\L	.
!	!LO:TX:t=P:problem:przkreślony obiegnik	!
8B-\J 8f	16ddd-sS\L	.
.	16bb-\JJ	.
8c\L 8f	8aa-\L	.
8c\J 8en	16bb-\L	.
.	16gg-\JJ	.
4F\ 4f	4ff\	.
=40:|!|:	=40:|!|:	=40:|!|:
16e-\LL	8.cc/L	.
16f\	.	.
16e-\	.	.
16f\JJ	16an/Jk	.
16c\LL	8f/L	.
16e-\	.	.
16c\	8f/J	.
16e-\JJ	.	.
16c\LL	8f/L	.
16e-\	.	.
16c\	16gn/L	.
16e-\JJ	16an/JJ	.
=41	=41	=41
16d-\LL	16b-\LL	.
16f\	16an\	.
16d-\	16b-\	.
16f\JJ	16cc\JJ	.
16B-\LL	16dd-\LL	.
16f\	16cc\	.
16d-\	16dd-\	.
16f\JJ	16ee-\JJ	.
16B-\LL	16ff\LL	.
16f\	16dd-\	.
16d-\	16cc\	.
16f\JJ	16b-\JJ	.
!!LO:LB:g=original
=42	=42	=42
16F\LL	8a-\L 8aan	.
16f\	.	.
16Gn\	8b-\J 8bb-	.
16f\JJ	.	.
16An\LL	8cc\L 8ccc	.
16f\	.	.
16B-\	8dd-\J 8ddd-	.
16f\JJ	.	.
16c\LL	8.ee-\L 8.eee-	.
16f\	.	.
16A\	.	.
16f\JJ	16cc\Jk 16ccc	.
=43	=43	=43
(16B-\LL 16d-	16fff\LL	.
16f\	16eeen\	.
16B-\) 16d-	16fff\	.
16f\JJ	16eee\JJ	.
16B-\LL 16d-	16fff\LL	.
16f\	16eee\	.
16B-\ 16d-	16fff\	.
16f\JJ	16eee\JJ	.
16B-\LL 16d-	16fff\LL	.
16f\	16ddd-\	.
16B-\ 16d-	16ccc\	.
16f\JJ	16bb-\JJ	.
*clefG2	*	*
=44	=44	=44
(16f/LL	16ccc\LL	.
16ee-/	16bbn\	.
16cc/)	16ccc\	.
16ee-/JJ	16aan\JJ	.
16f/LL	8ff\L	.
16ee-/	.	.
16cc/	8ff\J	.
16ee-/JJ	.	.
!	!LO:TX:t=P:problem:przkreślony obiegnik	!
16f/LL	8ffsS\L	.
16ee-/	.	.
16cc/	16ggn\L	.
16ee-/JJ	16aa\JJ	.
=45	=45	=45
(16f/LL	16bb-\LL	.
16dd-/	16ccc\	.
16b-/	16ddd-\	.
16dd-/JJ)	16eee-\JJ	.
.	8qeee-/	.
16f/LL	8fff\L	.
16dd-/	.	.
.	8qeee-/	.
16b-/	8fff\J	.
16dd-/JJ	.	.
16g-/LL	(16eee-X\LL	.
16dd-/	16ddd-\	.
16b-/	16ccc\	.
16dd-/JJ	16bb-\JJ)	.
!!LO:LB:g=original
=46	=46	=46
*^	*	*
8cc/L	2.f\	16aan\LL	.
.	.	16ff\	.
8dd-/J	.	16bb-\	.
.	.	16ff\JJ	.
8an/L	.	16ccc\LL	.
.	.	16ff\	.
8b-/J	.	16ddd-\	.
.	.	16ff\JJ	.
8cc/L	.	16eee-\LL	.
.	.	16ff\	.
8a/J	.	16ccc\	.
.	.	16ff\JJ	.
*v	*v	*	*
=47	=47	=47
8b-/L	16ddd-\LL	.
.	(16fff\	.
8f/J	16aan\	.
.	16ccc\JJ)	.
8r	(4aa\ 4ccc	.
8f\ 8ee-	.	.
4b-\ 4dd-	8bb-\)	.
!	!LO:TX:b:i:t=Polo&colon; da ca=po	!
.	8r	.
==	==	==
*-	*-	*-
!!!RDF**kern: > = above
!!!RDF**kern: < = below
!!!system-decoration: [(s1,s2)]
!!!ENC: Berenika Jozajtis
!!!END: 2022-07-26
!!!ENC: Urszula Świątek
!!!END: 2022-08-23
